!!!!SEGMENT: pl-kk--kk-i-3--008-001_anonim--missa-solenne-kirie.krn
!!!cenid: 15xx:599
!!!COM: Anonim
!!!COM-rismID: pe30004985
!!!CDT:
!!!CNT:
!!!OPR: Missa Solenne
!!!OTL: Kirie
!!!OMV: 001
!!!PDT:
!!!AGN:
!!!SMS-siglum: PL-Kk
!!!SMS-shelfmark: Kk.I.3
!!!SMS-shelfwork: 008-001 M
!!!SMS-variant:
!!!SMS-altvar:
!!!NIFC-rismSourceID: 1001145493
!!!NIFC-rismChildID: 1001145493
!!!NIFC-islandoraID: pl-kk:1170
!!!URL-pdf-islandora: https://repozytorium.nifc.pl/islandora/object/pl-kk%3A1170/datastream/PDF/view
!!!URL-scan: https://polish.musicsources.pl/pl/lokalizacje/galeria/rekopisy/5919 @EN{Scan on Polish Music Sources Website} @PL{Skany w portalu Dziedzictwo Muzyki Polskiej w otwartym dostępie}
!!!ONB-nifc: UWAGA: Discantus (s. 39v-40r, skan 0042), Tenor (s. 29r, skan 0201), Bassus (s. 37r-38r, skan 0340-0341). Następna część: Et in terra
!!!AIN: 1 alto 1 bass 1 tenor
!!!key:
**kern	**text	**text	**kern	**text	**text	**text	**kern	**text	**text
*part3	*part3	*part3	*part2	*part2	*part2	*part2	*part1	*part1	*part1
*staff3	*staff3	*staff3	*staff2	*staff2	*staff2	*staff2	*staff1	*staff1	*staff1
*I"Bassus	*	*	*I"Tenor	*	*	*	*I"Discantus	*	*
*I'B	*	*	*I'T	*	*	*	*I'A	*	*
*Ibass	*	*	*Itenor	*	*	*	*Ialto	*	*
*ICvox	*	*	*ICvox	*	*	*	*ICvox	*	*
*clefF4	*	*	*clefC4	*	*	*	*clefC3	*	*
*k[]	*	*	*k[]	*	*	*	*k[]	*	*
*C:	*	*	*C:	*	*	*	*C:	*	*
=1-	=1-	=1-	=1-	=1-	=1-	=1-	=1-	=1-	=1-
!	!	!	!LO:TX:a:B:t=Kirie virginitatis solenne:color=red	!	!	!	!	!	!
1G\	Ki-	Ki-	1G/	Kÿ-	.	De-	1g\	Ki-	.
1D\	-ri-	-ri-	1A\	-ri-	.	-o	1f\	-ri-	.
=2-	=2-	=2-	=2-	=2-	=2-	=2-	=2-	=2-	=2-
2GG/	.	.	1B\	-e	.	.	1d\	.	.
1G\	-e	-e	.	.	.	.	.	.	.
.	.	.	1B\	vir-	.	fons	2d/	-e	.
*2\right	*	*	*	*	*	*	*	*	*
2G\	vir-	fons	.	.	.	.	2e/	.	.
=3-	=3-	=3-	=3-	=3-	=3-	=3-	=3-	=3-	=3-
1F\	-gi-	bo-	1A\	-gi-	.	bo-	1f\	.	.
0C/	-ni-	-ni-	1c\	-ni-	.	-ni-	1e\	.	.
=4-	=4-	=4-	=4-	=4-	=4-	=4-	=4-	=4-	=4-
.	.	.	1c\	-ta-	.	-ta-	1e\	fons	vir-
*lig	*	*	*lig	*	*	*	*	*	*
1G\	-ta-	-ta-	1B\	-tis	.	-tis	2d/	bo-	-gi-
.	.	.	.	.	.	.	1g\	-ni-	-ni-
=5-	=5-	=5-	=5-	=5-	=5-	=5-	=5-	=5-	=5-
1D\	.	.	1A\	.	.	.	.	.	.
*	*	*	*	*	*	*	*2\right	*	*
.	.	.	.	.	.	.	2f\	-ta-	-ta-
!	!	!	!	!	!	!	!LO:TX:t=P:problem=2\right&colon; global	!	!
*Xlig	*	*	*Xlig	*	*	*	*	*	*
1E\	.	.	1G/	a-	[[pa-	pa-	1g\	-tis	-tis
=6-	=6-	=6-	=6-	=6-	=6-	=6-	=6-	=6-	=6-
1D\	-tis	-tis	1A\	-ma-	-ter	-ter	1f\	pa-	a-
*	*	*	*	*	*	*	*custos:f	*	*
2AA/	a-	pa-	1A\	-tor	in-	in-	2e\	-ter	-ma-
*custos:E	*	*	*	*	*	*	*	*	*
!	!	!	!	!	!	!	!LO:LB:g=original	!	!
2D/	-ma-	-ter	.	.	.	.	1f\	in	-tor
!LO:LB:g=original	!	!	!	!	!	!	!	!	!
=7-	=7-	=7-	=7-	=7-	=7-	=7-	=7-	=7-	=7-
2E/	-tor	in-	1G/	in-	-ge-	-ge-	.	.	.
2C/	in-	-ge-	.	.	.	.	1e\	.	.
1D\	-cli-	-ni-	1F/	-cli-	-ni-	-ni-	.	.	.
.	.	.	.	.	.	.	1d\	ge-	in-
=8-	=8-	=8-	=8-	=8-	=8-	=8-	=8-	=8-	=8-
1AA/	-te	-te	1E/	-te	-te]]	-te	.	.	.
.	.	.	.	.	.	.	2c/	-ni-	-cli-
1A\	fac-	a	1D/	.	.	a-	1d\	-te	-te
=9-	=9-	=9-	=9-	=9-	=9-	=9-	=9-	=9-	=9-
*	*	*	*custos:A	*	*	*	*	*	*
2F\	-tor	quo	1D/	fa-	.	-gra	1f\	a	fac-
1D\	et	bo-	.	.	.	.	.	.	.
!	!	!	!LO:LB:g=original	!	!	!	!	!	!
.	.	.	1A\,<	-ctor	[[quo	quo	1e\	quo	-tor
2C/	cre-	-na	.	.	.	.	.	.	.
=10-	=10-	=10-	=10-	=10-	=10-	=10-	=10-	=10-	=10-
1D\	-at-	cun-	1A\	et	bo]]	bo-	1f\	bo-	et
1E\	.	.	1G/	cre-	.	-na	1g\	-na	cre-
=11-	=11-	=11-	=11-	=11-	=11-	=11-	=11-	=11-	=11-
1D\	.	.	1A\	-a-	.	cunc-	1f\	cu(n)-	-a-
2GG/	-or	-cta	1B\	-tor	.	-ta	1d\	-cta	-tor
1G\	Ma-	.	.	.	.	.	.	.	.
=12-	=12-	=12-	=12-	=12-	=12-	=12-	=12-	=12-	=12-
.	.	.	1c\	Ma-	.	pro-	2e\	pro-	ma-
2F\	.	pro-	.	.	.	.	2f\	.	-ri-
*	*	*	*lig	*	*	*	*	*	*
1G\	-ri	-ce-	1B\	-ri-	.	-ce-	1d\	-ce-	-e
=13-	=13-	=13-	=13-	=13-	=13-	=13-	=13-	=13-	=13-
1D\	.	.	1A\	.	.	.	1f\	-dunt	.
*	*	*	*Xlig	*	*	*	*	*	*
1E\	.	.	1G/	-e	.	-dunt	1e\	.	.
=14-	=14-	=14-	=14-	=14-	=14-	=14-	=14-	=14-	=14-
*custos:GG	*	*	*	*	*	*	*custos:d	*	*
1D\	.	-dunt	1F/	E-	.	.	1f\	.	.
!LO:LB:g=original	!	!	!	!	!	!	!LO:LB:g=original	!	!
2GG/	.	.	1G/	-le-	.	ci-	2d/	e-	.
2G\	.	.	.	.	.	.	1g\	-lei-	.
=15-	=15-	=15-	=15-	=15-	=15-	=15-	=15-	=15-	=15-
1D\	.	.	1A\	.	.	.	.	.	.
.	.	.	.	.	.	.	2f\	.	.
2GG/	E-	.	0G/	-i-	.	.	2g\	.	.
1C/	-le-	.	.	.	.	.	2e/	.	.
=16-	=16-	=16-	=16-	=16-	=16-	=16-	=16-	=16-	=16-
.	.	.	.	.	.	.	1d\	.	.
2BB/	-ÿ-	.	.	.	.	.	.	.	.
!	!	!	!LO:TX:t=P:problem=druga kreska czerwona	!	!	!	!	!	!
1C/;l	-son	.	1E/l	-ſon	.	-as	1e\;l	-ſon	.
=17||-	=17||-	=17||-	=17||	=17||	=17||-	=17||	=17-	=17-	=17-
*lig	*	*	*	*	*	*	*	*	*
1E\	Chri-	.	1E/	Chri-	.	.	1g\	Chri-	.
*	*	*	*lig	*	*	*	*	*	*
1D\	.	.	1F/	.	.	.	1f\	-ſte	.
*Xlig	*	*	*	*	*	*	*	*	*
=18-	=18-	=18-	=18-	=18-	=18-	=18-	=18-	=18-	=18-
2D/	.	.	1D/	.	.	.	2f\	.	.
1F\	-ſte	.	.	.	.	.	1d\	.	.
*	*	*	*Xlig	*	*	*	*	*	*
.	.	.	1G/,<	-ſte	.	.	.	.	.
2E/	.	.	.	.	.	.	2e\	.	.
=19-	=19-	=19-	=19-	=19-	=19-	=19-	=19-	=19-	=19-
!	!	!	!LO:TX:t=P:problem=w tym takcie linie tekstu zamienione	!	!	!	!	!	!
1D\	ſte	.	1A\	a-	.	V-	1f\	.	.
*	*	*	*custos:c	*	*	*	*	*	*
!LO:TX:t=P:problem=tekst nieczytelny	!	!	!	!	!	!	!	!	!
1C/	<..	.	1c\	-gi-	.	-ni-	1g\,<	.	.
!	!	!	!LO:LB:g=original	!	!	!	!	!	!
=20-	=20-	=20-	=20-	=20-	=20-	=20-	=20-	=20-	=20-
*	*	*	*clefC3	*	*	*	*	*	*
1C/	...	.	1c\	-ce	.	-ie	1e\	U-	a-
*	*	*	*	*	*	*	*custos:e	*	*
2C/	...	.	1c\	de-	.	ÿ-	1e\	-ni-	-gi-
*custos:AA	*	*	*	*	*	*	*	*	*
2BB/	..>	.	.	.	.	.	.	.	.
!LO:PB:g=original	!	!	!	!	!	!	!LO:LB:g=original	!	!
=21-	=21-	=21-	=21-	=21-	=21-	=21-	=21-	=21-	=21-
1AA/	for-	pa-	1c\	-i	.	-gas	2e\	-ce	-le
.	.	.	.	.	.	.	2f\	de-	i-
*	*	*	*lig	*	*	*	*	*	*
2GG/	-tis	-tris	1B/	pa-	.	for-	2d/	-i	-gus
1G\	ge-	ge-	.	.	.	.	1e\	pa-	for-
=22-	=22-	=22-	=22-	=22-	=22-	=22-	=22-	=22-	=22-
.	.	.	1A/	.	.	.	.	.	.
2F\	.	-ni-	.	.	.	.	1d\	.	.
*	*	*	*Xlig	*	*	*	*	*	*
1E\	-mi-	-te	1G/	-tris	.	-tis	.	.	.
.	.	.	.	.	.	.	2c/	-tris	-tis
=23-	=23-	=23-	=23-	=23-	=23-	=23-	=23-	=23-	=23-
1D\	-ne	.	1A/	ge-	.	ven-	1d\	ge-	ge-
1GG/	.	.	1B/	-ni-	.	-tu-	1d\	-ni-	-mi-
=24-	=24-	=24-	=24-	=24-	=24-	=24-	=24-	=24-	=24-
1GG/	qui	que(m)	1B/	-te	.	-re	1d\,<	-te	-ne
1D\	pro	de	1D/	que(m)	.	que(m)	1f\	que(m)	qui
=25-	=25-	=25-	=25-	=25-	=25-	=25-	=25-	=25-	=25-
2GG/	ho-	vir-	1G/	de	.	pro	2d/	de	pro
2C/	.	-gi-	.	.	.	.	1e\	.	.
2AA/	-mi-	.	1A/	vir-	.	ho-	.	.	.
2D\	.	.	.	.	.	.	2f\	vir-	ho-
=26-	=26-	=26-	=26-	=26-	=26-	=26-	=26-	=26-	=26-
1C/	-ne	-ne	1c\	-gi-	.	-mi-	1g\	-gi-	-mi-
1C/	ho-	na-	1c\,<	-ne	.	-ne	1g\	-ne	-ne
=27-	=27-	=27-	=27-	=27-	=27-	=27-	=27-	=27-	=27-
*custos:AA	*	*	*	*	*	*	*	*	*
1C/	-mo	-sci-	1c\	nas-	.	ho-	1e\	na-	ho-
!LO:LB:g=original	!	!	!	!	!	!	!	!	!
1AA/	si-	-tu-	1c\	-ci-	.	-mo	2e\	-sci-	-(no)r
*	*	*	*	*	*	*	*custos:d	*	*
.	.	.	.	.	.	.	2f\	-tu	ſi
!	!	!	!	!	!	!	!LO:LB:g=original	!	!
=28-	=28-	=28-	=28-	=28-	=28-	=28-	=28-	=28-	=28-
*lig	*	*	*lig	*	*	*	*	*	*
1GG/	-ne	-rum	1B/	-tu-	.	ſi-	2d/	.	.
.	.	.	.	.	.	.	1g\	.	.
1D\	.	.	1A/	.	.	.	.	.	.
.	.	.	.	.	.	.	2f\	.	.
*Xlig	*	*	*Xlig	*	*	*	*	*	*
=29-	=29-	=29-	=29-	=29-	=29-	=29-	=29-	=29-	=29-
1E\	vi-	in	1G/	-ru(m)	.	-ne	1g\	ſi-	.
*	*	*	*custos:A	*	*	*	*	*	*
1D\	-ri-	do-	1A/	mun-	.	vir-	1f\	-ne	cum
!	!	!	!LO:LB:g=original	!	!	!	!	!	!
=30-	=30-	=30-	=30-	=30-	=30-	=30-	=30-	=30-	=30-
*	*	*	*clefC4	*	*	*	*	*	*
2AA/	-li	-mi-	1A\	-do	.	-gi-	2e\	vi-	mun-
2D/	se-	-ni-	.	.	.	.	1f\	-ri-	-do
2E/	.	.	1G/,<	mi-	.	-li	.	.	.
2C/	.	.	.	.	.	.	1e\	-li	mi-
=31-	=31-	=31-	=31-	=31-	=31-	=31-	=31-	=31-	=31-
1D\	-mi-	-fi-	1F/	-ri-	.	ſe-	.	.	.
.	.	.	.	.	.	.	1d\	ſe-	-ri-
1AA/	-ne	-ce	1E/	-fi-	.	-mi-	.	.	.
.	.	.	.	.	.	.	2c/	-mi-	-fi-
=32-	=32-	=32-	=32-	=32-	=32-	=32-	=32-	=32-	=32-
1A\	Pro-	San-	1D/	-ce	.	-ne	1d\	-ne	-ce
*	*	*	*	*	*	*	*lig	*	*
2F\	-di-	-ctis	1D/	San-	.	pro-	1f\	pro-	san-
1D\	-sti	.	.	.	.	.	.	.	.
=33-	=33-	=33-	=33-	=33-	=33-	=33-	=33-	=33-	=33-
.	.	.	1A\	-cti	.	-di-	1e\	.	-cti
2C/	de	pre-	.	.	.	.	.	.	.
*	*	*	*	*	*	*	*Xlig	*	*
1D\	.	-di-	1A\	pre-	.	-ſti	1f\	-diſ-	pre-
=34-	=34-	=34-	=34-	=34-	=34-	=34-	=34-	=34-	=34-
*custos:D	*	*	*	*	*	*	*	*	*
!	!	!	!LO:TX:t=P:problem=odtąd do kreski taktowej dziury w karcie i nuty nieczytelne	!	!	!	!	!	!
1E\	ven-	-xe-	1G/	-di-	.	de	1g\	-ti	.
!LO:LB:g=original	!	!	!	!	!	!	!	!	!
1D\	-tre	-runt	1A\	-xe-	.	ven-	1f\	.	.
=35-	=35-	=35-	=35-	=35-	=35-	=35-	=35-	=35-	=35-
2GG/	.	.	1B\	.	.	-tre	2d/	de	-di-
1G\	Ma-	pro-	.	.	.	.	2e/	ven-	-xe-
.	.	.	1c\	-runt	.	Ma-	1f\	-tre	-ru(n)t
2F\	.	-phe-	.	.	.	.	.	.	.
=36-	=36-	=36-	=36-	=36-	=36-	=36-	=36-	=36-	=36-
*	*	*	*	*	*	*	*custos:d	*	*
1G\	-ri-	-te	1G/	pro-	.	-ri-	1d\	ma-	pro-
!	!	!	!	!	!	!	!LO:LB:g=original	!	!
2D/	-e	.	1B\	-phe-	.	.	1d\	-phe-	-ri-
2F/	e-	.	.	.	.	.	.	.	.
=37-	=37-	=37-	=37-	=37-	=37-	=37-	=37-	=37-	=37-
1E\	.	.	1G/	-te	.	-e	1e\	-te	-e
1D\	.	.	1F/	.	.	e-	1f\	.	.
=38-	=38-	=38-	=38-	=38-	=38-	=38-	=38-	=38-	=38-
*lig	*	*	*	*	*	*	*	*	*
1G\	.	.	1F/	.	.	-le-	1d\	e-	.
1D\	.	.	1A\	.	.	.	1d\	-le-	.
*Xlig	*	*	*	*	*	*	*	*	*
=39-	=39-	=39-	=39-	=39-	=39-	=39-	=39-	=39-	=39-
2E/	.	.	0G/	.	.	-y-	2B/	-i-	.
2C/	.	.	.	.	.	.	1c\	.	.
1G\	-leÿ-	.	.	.	.	.	.	.	.
.	.	.	.	.	.	.	2B/	-ſon	.
=40-	=40-	=40-	=40-	=40-	=40-	=40-	=40-	=40-	=40-
*custos:C	*	*	*custos:c	*	*	*	*	*	*
!	!	!	!LO:TX:t=P:problem=czerwona kreska	!	!	!	!	!	!
0C/;l	-son	.	0E/l	.	.	-son	0c\;l	.	.
.	.	.	.	.	.	.	.	.	.
=41||-	=41||-	=41||-	=41	=41	=41	=41	=41-	=41-	=41-
*lig	*	*	*lig	*	*	*	*	*	*
1C/	Ki-	.	1c\	Ki-	.	.	0g\	Ki-	.
1G\	.	.	1B\	-ri-	.	.	.	.	.
*Xlig	*	*	*Xlig	*	*	*	*	*	*
=42-	=42-	=42-	=42-	=42-	=42-	=42-	=42-	=42-	=42-
*lig	*	*	*	*	*	*	*	*	*
1A\	-ri-	.	1c\	-e	.	.	2e\	-ri-	.
.	.	.	.	.	.	.	2f\	-e	.
1G\	.	.	1d\	.	.	.	1g\	.	.
*Xlig	*	*	*	*	*	*	*	*	*
=43-	=43-	=43-	=43-	=43-	=43-	=43-	=43-	=43-	=43-
1G\	-e	.	1d\	I-	.	.	1g\	.	.
1GG/	Qui	I-	1B\	-gne	.	qui	1d\	I-	qui
=44-	=44-	=44-	=44-	=44-	=44-	=44-	=44-	=44-	=44-
*	*	*	*	*	*	*	*custos:g	*	*
1GG/	in-	-gne	1d\	Di-	.	in-	2d/	-gne	in-
.	.	.	.	.	.	.	2g\	Di-	-car-
1AA/	-car-	di-	1c\	-ui-	.	-car-	2e\	.	.
.	.	.	.	.	.	.	2f\	.	.
=45-	=45-	=45-	=45-	=45-	=45-	=45-	=45-	=45-	=45-
*lig	*	*	*lig	*	*	*	*	*	*
1GG/	-na-	-ui-	1B\	-no	.	-na-	2d/	.	.
.	.	.	.	.	.	.	1g\	.	.
1D\	.	.	1A\	.	.	.	.	.	.
.	.	.	.	.	.	.	2f\	-vi-	-na-
*Xlig	*	*	*Xlig	*	*	*	*	*	*
=46-	=46-	=46-	=46-	=46-	=46-	=46-	=46-	=46-	=46-
1GG/	-tus	-no	1G/	pec-	.	-tus	1g\,<	-no	-t(us)
1G\	de	pe-	1B\	-to-	.	de	1d\	pec-	de
=47-	=47-	=47-	=47-	=47-	=47-	=47-	=47-	=47-	=47-
1E\	ma-	-cto-	1c\	-ra	.	ma-	1e\	.	ma-
1D\	-ri-	-ra	1d\	.	.	-ri-	1f\	-to-	-ri-
=48-	=48-	=48-	=48-	=48-	=48-	=48-	=48-	=48-	=48-
1G\	-e	no-	1B\	n(ost)-	.	-e	2d/	-ra	-e
.	.	.	.	.	.	.	1g\	no-	ven-
1D\	ven-	-stra	1d\	-ra	.	ven-	.	.	.
.	.	.	.	.	.	.	2f\	-stra	.
=49-	=49-	=49-	=49-	=49-	=49-	=49-	=49-	=49-	=49-
*custos:G	*	*	*	*	*	*	*	*	*
1A\	-tre	suc-	1c\	su-	.	-tre	2e\	.	-tre
.	.	.	.	.	.	.	2c/	sur-	na-
!LO:LB:g=original	!	!	!	!	!	!	!	!	!
*lig	*	*	*lig	*	*	*	*	*	*
1G\	na-	-cen-	1B\	-den-	.	na-	2d/	-ren-	.
.	.	.	.	.	.	.	1g\	.	.
=50-	=50-	=50-	=50-	=50-	=50-	=50-	=50-	=50-	=50-
1D\	.	.	1A\	.	.	.	.	.	.
.	.	.	.	.	.	.	2f\	.	.
*Xlig	*	*	*Xlig	*	*	*	*	*	*
1E\	-tus	-de	1G/	-de	.	-tus	1g\	-de	-tus
=51-	=51-	=51-	=51-	=51-	=51-	=51-	=51-	=51-	=51-
*	*	*	*custos:A	*	*	*	*custos:e	*	*
1D\	.	.	1A\	vt	.	no-	1f\	vt	ſub
!	!	!	!LO:PB:g=original	!	!	!	!	!	!
!	!	!	!LO:TX:t=P:problem=odtąd linie tekstu zamienione	!	!	!	!	!	!
2AA/	ſub	vt	1A\	-ſtra	.	Di-	2e\	Di-	noſ-
2D/	noſ-	di-	.	.	.	.	1f\	-gni	-tra
=52-	=52-	=52-	=52-	=52-	=52-	=52-	=52-	=52-	=52-
2E/	.	.	1G/	ſub	.	-gni	.	.	.
2C/	-tra	-gni	.	.	.	.	1e\	pa-	ſpe-
1D\	ſpe-	pa-	1F/	ſpe	.	pa-	.	.	.
.	.	.	.	.	.	.	1d\	-xi-	-ri-
=53-	=53-	=53-	=53-	=53-	=53-	=53-	=53-	=53-	=53-
1AA/	-ci-	-ri-	1E/	ci-	.	-ri-	.	-ter	.
.	.	.	.	.	.	.	2c/	.	-(ae)
1D\	-e	-ter	1D/	-e	.	-ter	1d\,<	.	.
=54-	=54-	=54-	=54-	=54-	=54-	=54-	=54-	=54-	=54-
1D\	cor-	te	1D/	cor-	.	te	1d\	.	cor-
2AA/	-pus	lau-	1A\	-pus	.	lau-	2c/	te	.
2D/	e-	-da-	.	.	.	.	2f\	lau-	-pus
=55-	=55-	=55-	=55-	=55-	=55-	=55-	=55-	=55-	=55-
2C/	-le-	-re	1A\	e	.	-da-	2e\	-da-	e-
2F\	-gi-	pos-	.	.	.	.	2f\	-re	-le-
*custos:A	*	*	*	*	*	*	*	*	*
1E\	-iſti	-si-	1G/	le	.	-re	1g\,<	.	.
!LO:PB:g=original	!	!	!	!	!	!	!	!	!
=56-	=56-	=56-	=56-	=56-	=56-	=56-	=56-	=56-	=56-
2A\	se	-mus	1A\	giſ	.	poſ-	2e\	.	.
2F\	.	.	.	.	.	.	2f\	poſ-	-gi-
1G\	.	.	1B\	ti	.	-ſi-	1d\	-si-	-ſti
=57-	=57-	=57-	=57-	=57-	=57-	=57-	=57-	=57-	=57-
1C/	.	.	1c\	ma-	.	-mus	1c\	-mus	Ma-
*lig	*	*	*lig	*	*	*	*	*	*
*	*	*	*	*	*	*	*custos:g	*	*
1G\	.	.	1B\	-ri-	.	sem-	2d/	sem-	-ri-
.	.	.	.	.	.	.	1g\	-per	.
=58-	=58-	=58-	=58-	=58-	=58-	=58-	=58-	=58-	=58-
1D\	.	.	1A\	.	.	-per	.	.	.
.	.	.	.	.	.	.	2f\	.	-e
*Xlig	*	*	*Xlig	*	*	*	*	*	*
2E/	.	.	1G/	e	.	.	2g\	.	.
2C/	.	.	.	.	.	.	2e\	E-	.
=59-	=59-	=59-	=59-	=59-	=59-	=59-	=59-	=59-	=59-
1D\	E-	.	1F/	e-	.	.	1f\	.	.
1C/	-le-	.	1G/	-le-	.	.	1e\	-lei-	.
=60-	=60-	=60-	=60-	=60-	=60-	=60-	=60-	=60-	=60-
2C/	-ÿ-	.	1A\	.	.	.	2e\	.	.
2AA/	-son	.	.	.	.	.	2c/	.	.
2BB/	.	.	1G/	.	.	.	2d/	.	.
2C/	.	.	.	.	.	.	2e/	.	.
=61-	=61-	=61-	=61-	=61-	=61-	=61-	=61-	=61-	=61-
1GG/	.	.	1G/	-ſon	.	.	1d\	.	.
1C/;l	.	.	1E/l	.	.	.	1e\;l	-ſon	.
==	==	==	==	==	==	==	==	==	==
*-	*-	*-	*-	*-	*-	*-	*-	*-	*-
!!!system-decoration: [(s1,s2,s3)]
!!!RDF**kern: < = below
!!!RDF**kern: l = terminal long
!!!ENC: Mateusz Solarz
!!!END: 2021-12-29
!!!EED: Andrzej Borzym
!!!EEV: 2022-01-02
!!!YEC: Copyright 2022 Narodowy Instytut Fryderyka Chopina (https://polishscores.org)
!!!YEM: License CC-BY-4.0 (https://creativecommons.org/licenses/by/4.0)
